X: 41
T: No_47_The_Neglected_Wife_Is_Pursued_by_Her_Husband.krn
N: Derived from No_47_The_Neglected_Wife_Is_Pursued_by_Her_Husband.krn
%%abc-version 2.0
%%abcx-abcm2ps-target-version 5.9.1 (29 Sep 2008)
%%abc-creator hum2abc beta
%%abcx-conversion-date 2019/03/15 08:35:01
%%humdrum-veritas 933957289
%%humdrum-veritas-data 1133839340
%%linebreak <none>
%%barnumbers 0
L: 1/8
M: 2/4
K: Bb clef=bass
[K:clef=bass][M:2/4]C2C2 | 
B,A, A,C | 
B,2A,A,/ z/ | 
B,2C2 | 
B,A, z C | 
[M:3/4]B,2A,A,A,2 | 
C2B,A, z C | 
[M:2/4]B,2A,A, | 
B,2C2 | 
B,A,z2 | 
D/C3/ B,/C3/ | 
D/D3/C2 | 
C/C3/ B,C | 
B,2(B,/G,/)F,/ z/ | 
C2(C/B,3/) | 
B,A, A,/ z/ B, | 
C2B,A,/ z/ | 
C2B,2 | 
B,A, z B, | 
C2A,A,/ z/ | 
C2B,2 | 
B,A, z B, | 
C2A,A,/ z/ | 
[M:3/4]C2B,2A,F,/ z/ | 
[M:2/4]D2CC | 
[M:3/4]CC/B,/ C/C3/B,2 | 
[M:2/4]C/C3/ B,C | 
[M:5/8]B,2B,G,/F,/ z | 
[M:2/4]C2B,2 | 
B,G,/F,/ z B, | 
C2A,A,/ z/ | 
C2B,2 | 
B,A, z3/ B,/ | 
C2A,A,/ z/ |]  



